X:088
T:Hard Times
M:4/4
K:D
D2 E2 | F4 F2 E2 | F2 A4 F2 | E2 D2 D2 E2 | F4
B3 B | A4 F4 | E2 D2 F3 E | D8 | D4
D2 E2 | F4 F2 E2 | F2 A4 F2 | E2 D2 D2 E2 | F4
B4 | A4 F4 | E2 D2 F2 E2 | D8 | D4
F2 G2 | A6 A2 | A4 ^G2 A2 | B8 | A8 | 
d4 A4 | B4 A4 | F2 F2 E2 D2 | E4
D2 E2 | F4 F2 E2 | F2 A4 F2 | E2 D2 D2 E2 | F4
B4 | A4 F4 | E2 D2 F2 E2 | D8 D4 || 

